X:25
T:Hawthorn Hedge
R:jig
M:6/8
Q:3/8=110
K:D
"Bm"~f3 faf|ed"G"B BdB|"A7"AFE ~E3|"A7"AFE E2g|
"Bm"~f3 faf|edB "G"BdB|
"D"AFE "G"EDB,|1 "A"~A,3 "D"Dde:|2 "A"~A,3 "D"D2D||
"D"A,DD FAA|def "Em"edB|"D"AFA BAF|"G"dAF "A"EDB,|
"D"A,DD FAA|def "Em"edB|
"D"AFA "G"B/c/de|1 "A"fdc "D"d2d:|2 "A"fdc "D"dge|
